papirus/32x32/apps/tellico.svg

<?xml version="1.0" encoding="UTF-8" standalone="no"?>
<!-- Created with Inkscape (http://www.inkscape.org/) -->

<svg
   xmlns:dc="http://purl.org/dc/elements/1.1/"
   xmlns:cc="http://creativecommons.org/ns#"
   xmlns:rdf="http://www.w3.org/1999/02/22-rdf-syntax-ns#"
   xmlns:svg="http://www.w3.org/2000/svg"
   xmlns="http://www.w3.org/2000/svg"
   xmlns:sodipodi="http://sodipodi.sourceforge.net/DTD/sodipodi-0.dtd"
   xmlns:inkscape="http://www.inkscape.org/namespaces/inkscape"
   id="svg4354"
   height="32"
   viewBox="0 0 32 32.000001"
   width="32"
   version="1.1"
   inkscape:version="0.91 r13725"
   sodipodi:docname="tellico.svg">
  <defs
     id="defs11" />
  <sodipodi:namedview
     pagecolor="#ffffff"
     bordercolor="#666666"
     borderopacity="1"
     objecttolerance="10"
     gridtolerance="10"
     guidetolerance="10"
     inkscape:pageopacity="0"
     inkscape:pageshadow="2"
     inkscape:window-width="1535"
     inkscape:window-height="876"
     id="namedview9"
     showgrid="false"
     inkscape:zoom="9.28"
     inkscape:cx="29.431879"
     inkscape:cy="13.287741"
     inkscape:window-x="65"
     inkscape:window-y="24"
     inkscape:window-maximized="1"
     inkscape:current-layer="svg4354" />
  <metadata
     id="metadata4359">
    <rdf:RDF>
      <cc:Work
         rdf:about="">
        <dc:format>image/svg+xml</dc:format>
        <dc:type
           rdf:resource="http://purl.org/dc/dcmitype/StillImage" />
        <dc:title></dc:title>
      </cc:Work>
    </rdf:RDF>
  </metadata>
  <rect
     id="rect4203-1"
     ry="1.4"
     rx="1.4"
     transform="matrix(0,-1,-1,0,0,0)"
     height="21"
     width="7"
     y="-23"
     x="-30"
     style="fill:#42cf57;fill-opacity:1" />
  <rect
     style="fill:#2ea0e3;fill-opacity:1"
     x="-23"
     y="-30"
     width="7"
     height="21"
     transform="matrix(0,-1,-1,0,0,0)"
     rx="1.4"
     ry="1.4"
     id="rect4139" />
  <rect
     id="rect4141"
     ry="1.4"
     rx="1.4"
     transform="matrix(0,-1,-1,0,0,0)"
     height="21"
     width="7"
     y="-23"
     x="-16"
     style="fill:#e65957;fill-opacity:1" />
  <rect
     style="fill:#ffe766;fill-opacity:1"
     x="-9"
     y="-30"
     width="7"
     height="21"
     transform="matrix(0,-1,-1,0,0,0)"
     rx="1.4"
     ry="1.4"
     id="rect4143" />
  <path
     inkscape:connector-curvature="0"
     style="opacity:0.2;fill:#ffffff;fill-opacity:1"
     d="M 10.400391,2 C 9.6247906,2 9,2.6247906 9,3.4003906 l 0,1 C 9,3.6247906 9.6247906,3 10.400391,3 L 28.599609,3 C 29.375209,3 30,3.6247906 30,4.4003906 l 0,-1 C 30,2.6247906 29.375209,2 28.599609,2 L 10.400391,2 Z"
     id="rect4259" />
  <path
     inkscape:connector-curvature="0"
     style="opacity:0.2;fill:#ffffff;fill-opacity:1"
     d="M 3.4003906,9 C 2.6247906,9 2,9.6247906 2,10.400391 l 0,1 C 2,10.624791 2.6247906,10 3.4003906,10 L 21.599609,10 C 22.375209,10 23,10.624791 23,11.400391 l 0,-1 C 23,9.6247906 22.375209,9 21.599609,9 L 3.4003906,9 Z"
     id="rect4264" />
  <path
     inkscape:connector-curvature="0"
     style="opacity:0.2;fill:#ffffff;fill-opacity:1"
     d="M 10.400391,16 C 9.6247906,16 9,16.624791 9,17.400391 l 0,1 C 9,17.624791 9.6247906,17 10.400391,17 l 18.199218,0 C 29.375209,17 30,17.624791 30,18.400391 l 0,-1 C 30,16.624791 29.375209,16 28.599609,16 l -18.199218,0 z"
     id="rect4269" />
  <path
     inkscape:connector-curvature="0"
     style="opacity:0.2;fill:#ffffff;fill-opacity:1"
     d="M 3.4003906,23 C 2.6247906,23 2,23.624791 2,24.400391 l 0,1 C 2,24.624791 2.6247906,24 3.4003906,24 L 21.599609,24 C 22.375209,24 23,24.624791 23,25.400391 l 0,-1 C 23,23.624791 22.375209,23 21.599609,23 L 3.4003906,23 Z"
     id="rect4274" />
  <path
     inkscape:connector-curvature="0"
     style="opacity:0.3;fill:#000000;fill-opacity:1"
     d="m 2,27.599609 0,1 C 2,29.375209 2.6247906,30 3.4003906,30 L 21.599609,30 C 22.375209,30 23,29.375209 23,28.599609 l 0,-1 C 23,28.375209 22.375209,29 21.599609,29 L 3.4003906,29 C 2.6247906,29 2,28.375209 2,27.599609 Z"
     id="rect4279" />
  <path
     inkscape:connector-curvature="0"
     style="opacity:0.3;fill:#000000;fill-opacity:1"
     d="m 9,20.599609 0,1 C 9,22.375209 9.6247906,23 10.400391,23 l 18.199218,0 C 29.375209,23 30,22.375209 30,21.599609 l 0,-1 C 30,21.375209 29.375209,22 28.599609,22 L 10.400391,22 C 9.6247906,22 9,21.375209 9,20.599609 Z"
     id="rect4284" />
  <path
     inkscape:connector-curvature="0"
     style="opacity:0.3;fill:#000000;fill-opacity:1"
     d="m 2,13.599609 0,1 C 2,15.375209 2.6247906,16 3.4003906,16 L 21.599609,16 C 22.375209,16 23,15.375209 23,14.599609 l 0,-1 C 23,14.375209 22.375209,15 21.599609,15 L 3.4003906,15 C 2.6247906,15 2,14.375209 2,13.599609 Z"
     id="rect4289" />
  <path
     inkscape:connector-curvature="0"
     style="opacity:0.3;fill:#000000;fill-opacity:1"
     d="m 9,6.5996094 0,1 C 9,8.3752094 9.6247906,9 10.400391,9 L 28.599609,9 C 29.375209,9 30,8.3752094 30,7.5996094 l 0,-1 C 30,7.3752094 29.375209,8 28.599609,8 L 10.400391,8 C 9.6247906,8 9,7.3752094 9,6.5996094 Z"
     id="rect4294" />
</svg>

<?xml version="1.0" encoding="UTF-8" standalone="no"?>
<svg id="svg4354" xmlns:rdf="http://www.w3.org/1999/02/22-rdf-syntax-ns#" xmlns="http://www.w3.org/2000/svg" height="32" width="32" version="1.1" xmlns:cc="http://creativecommons.org/ns#" viewBox="0 0 32 32.000001" xmlns:dc="http://purl.org/dc/elements/1.1/">
 <metadata id="metadata4359">
  <rdf:RDF>
   <cc:Work rdf:about="">
    <dc:format>image/svg+xml</dc:format>
    <dc:type rdf:resource="http://purl.org/dc/dcmitype/StillImage"/>
    <dc:title/>
   </cc:Work>
  </rdf:RDF>
 </metadata>
 <rect id="rect4203-1" ry="1.4" rx="1.4" transform="matrix(0,-1,-1,0,0,0)" height="21" width="7" y="-23" x="-30" fill="#42cf57"/>
 <rect id="rect4139" ry="1.4" rx="1.4" transform="matrix(0,-1,-1,0,0,0)" height="21" width="7" y="-30" x="-23" fill="#2ea0e3"/>
 <rect id="rect4141" ry="1.4" rx="1.4" transform="matrix(0,-1,-1,0,0,0)" height="21" width="7" y="-23" x="-16" fill="#e65957"/>
 <rect id="rect4143" ry="1.4" rx="1.4" transform="matrix(0,-1,-1,0,0,0)" height="21" width="7" y="-30" x="-9" fill="#ffe766"/>
 <path id="rect4259" opacity=".2" d="m10.4 2c-0.7752 0-1.4 0.6248-1.4 1.4004v1c0-0.7756 0.6248-1.4004 1.4-1.4004h18.2c0.775 0 1.4 0.6248 1.4 1.4004v-1c0-0.7756-0.625-1.4004-1.4-1.4004h-18.2z" fill="#fff"/>
 <path id="rect4264" opacity=".2" d="m3.4004 9c-0.7756 0-1.4004 0.6248-1.4004 1.4v1c0-0.775 0.6248-1.4 1.4004-1.4h18.2c0.775 0 1.4 0.625 1.4 1.4v-1c0-0.7752-0.625-1.4-1.4-1.4h-18.2z" fill="#fff"/>
 <path id="rect4269" opacity=".2" d="m10.4 16c-0.7752 0-1.4 0.625-1.4 1.4v1c0-0.775 0.6248-1.4 1.4-1.4h18.199c0.776 0 1.401 0.625 1.401 1.4v-1c0-0.775-0.625-1.4-1.4-1.4h-18.199z" fill="#fff"/>
 <path id="rect4274" opacity=".2" d="m3.4004 23c-0.7756 0-1.4004 0.625-1.4004 1.4v1c0-0.775 0.6248-1.4 1.4004-1.4h18.2c0.775 0 1.4 0.625 1.4 1.4v-1c0-0.775-0.625-1.4-1.4-1.4h-18.2z" fill="#fff"/>
 <path id="rect4279" opacity=".2" d="m2 28.6v1c0 0.775 0.6248 1.4 1.4004 1.4h18.2c0.775 0 1.4-0.625 1.4-1.4v-1c0 0.775-0.625 1.4-1.4 1.4h-18.2c-0.7752 0-1.4-0.625-1.4-1.4z"/>
 <path id="rect4284" opacity=".2" d="m9 21.6v1c0 0.775 0.6248 1.4 1.4 1.4h18.199c0.776 0 1.401-0.625 1.401-1.4v-1c0 0.775-0.625 1.4-1.4 1.4h-18.2c-0.7752 0-1.4-0.625-1.4-1.4z"/>
 <path id="rect4289" opacity=".2" d="m2 14.6v1c0 0.775 0.6248 1.4 1.4004 1.4h18.2c0.775 0 1.4-0.625 1.4-1.4v-1c0 0.775-0.625 1.4-1.4 1.4h-18.2c-0.7752 0-1.4-0.625-1.4-1.4z"/>
 <path id="rect4294" opacity=".2" d="m9 7.5996v1c0 0.7756 0.6248 1.4004 1.4 1.4004h18.199c0.776 0 1.401-0.6248 1.401-1.4004v-1c0 0.7756-0.625 1.4004-1.4 1.4004h-18.2c-0.7752 0-1.4-0.6248-1.4-1.4004z"/>
</svg>
